packages/ui/src/lib/icons/svg/script.svg

<svg width="100%" height="100%" viewBox="0 0 16 16" fill="none" xmlns="http://www.w3.org/2000/svg">
<path d="M11.8684 14H12.5C13.6046 14 14.5 13.1046 14.5 12V2H4.5V10" stroke="currentColor" stroke-width="1.5"/>
<path d="M7 5.19995H12" stroke="currentColor" stroke-width="1.5"/>
<path d="M7 7.69995H12" stroke="currentColor" stroke-width="1.5"/>
<path d="M1 10.5H9.99998L9.99998 12C9.99998 13.1046 10.8954 14 12 14H12.5H3C1.89544 14 1.00001 13.1046 1.00001 12L1 10.5Z" stroke="currentColor" stroke-width="1.5"/>
</svg>

<svg xmlns="http://www.w3.org/2000/svg" fill="none" viewBox="0 0 16 16" width="100%" height="100%"><path stroke="currentColor" stroke-width="1.5" d="M11.868 14h.632a2 2 0 0 0 2-2V2h-10v8M7 5.2h5M7 7.7h5"/><path stroke="currentColor" stroke-width="1.5" d="M1 10.5h9V12a2 2 0 0 0 2 2h.5H3a2 2 0 0 1-2-2z"/></svg>
